**kern	**text
*clefG2	*
*k[]	*
*M4/4	*
*MM145	*
=1	=1
1r	.
=2	=2
8.eL	to
16eJk	o
8eL	a
8eJ	ru
4r	.
8r	.
8e	ko
=3	=3
8.d'L	to
[16BJk	ba
16B]	.
16r	.
8c	ga
4r	.
8cL	ki
8dJ	mi
=4	=4
8.e'L	ni
[16eJk	tsu
16e]	.
16r	.
8e	ki
2r	.
=5	=5
8.dL	sa
[16BJk	sa
8BL]	.
[8cJ	ri
8cL]	.
8c	ki
8c	zu
8dJ	gu
=6	=6
8.e'L	chi
[16eJk	ka
8eL]	.
8eJ	ra
4r	.
8r	.
8e	mo
=7	=7
8.d'L	re
[16BJk	da
8BL]	.
[8cJ	su
8cL]	.
8c	e
8c	ki
8dJ	o
=8	=8
8.e'L	a
[16eJk	i
16e]	.
16r	.
8e	to
4r	.
8r	.
8e	ke
=9	=9
8.dL	i
[16eJk	yo
8eL]	.
[8cJ	o
8cL]	.
8c	shi
8d	te
8cJ	mi
=10	=10
4.B	ta
[8c	a
2c_	.
=11	=11
1c]	.
=12	=12
1r	.
=13	=13
1r	.
=14	=14
1r	.
=15	=15
1r	.
=16	=16
1r	.
=17	=17
2r	.
8r	.
8cL	o
8c	mo
8dJ	i
=18	=18
8.eL	ya
[16eJk	ri
8eL]	.
8eJ	no
4r	.
8r	.
8e	ke
=19	=19
8.d'L	tsu
[16BJk	jo
8BL]	.
8cJ	to
8r	.
8cL	ka
8c	ta
8dJ	chi
=20	=20
8.eL	da
[16eJk	ke
16eLL]	.
16eJ	n
8eJ	no
4r	.
8r	.
8e	ko
=21	=21
8.dL	o
[16BJk	bi
8BL]	.
[8cJ	wa
8cL]	.
8c	ku
8c	sa
8dJ	re
=22	=22
8.eL	e
[16eJk	n
8eL]	.
8eJ	no
2r	.
=23	=23
8.dL	ki
[16BJk	mi
8BL]	.
[8cJ	to
16c]	.
16r	.
8c	a
8cL	ta
8dJ	shi
=24	=24
8.eL	ni
[16eJk	yo
16e]	.
16r	.
8e	ku
4r	.
8r	.
8e	ni
=25	=25
8.dL	te
[16BJk	i
8BL]	.
[8cJ	ru
8cL]	.
8c	so
8d	re
8cJ	de
=26	=26
2c	mo
2d	su
=27	=27
2e	ki
4g	to
4e	ka
=28	=28
8r	.
8dL	a
8d	i
8fJ	shi
4g'	ta
8b-XL	te
[8aJ	i
=29	=29
8aL]	.
16.gL	ja
32gJJk	n
8gL	na
8fJ	i
4f	ka
8dL	shi
8fJ	ba
=30	=30
4g	ri
8gL	da
8aJ	re
4b-X	mo
4b-	fu
=31	=31
[8.ccL	re
32ccLL]	.
32ccJJJ	n
4dd	na
4cc	i
8b-XL	yo
[8aJ	o
=32	=32
8aL]	.
8d	ko
8d	re
8fJ	mo
8gL	u
8g	n
8b-X	me
[8aJ	i
=33	=33
8aL]	.
8g	ja
8g	na
8fJ	i
4f	ka
8dL	ki
8fJ	e
=34	=34
4g	ru
8gL	ki
8aJ	e
4b-X	ru
4b-	to
=35	=35
4cc	a
4dd	ru
4cc	a
8b-XL	i
8aJ	se
=36	=36
1r	.
=37	=37
1r	.
=38	=38
1r	.
=39	=39
1r	.
=40	=40
1r	.
=41	=41
1r	.
=42	=42
1r	.
=43	=43
1r	.
=44	=44
8.eL	o
16eJk	o
8eL	wa
8eJ	ru
4r	.
8r	.
8e	ko
=45	=45
8.dL	ro
[16BJk	ni
8BL]	.
8cJ	wa
4r	.
8cL	ki
16.dL	mi
32dJJk	n
=46	=46
8.eL	ni
[16eJk	a
8eL]	.
8eJ	i
2r	.
=47	=47
8.dL	te
[16BJk	ru
8BL]	.
8cJ	yo
8r	.
8cL	a
8c	i
8dJ	ka
=48	=48
8.eL	yo
[16eJk	ku
8eL]	.
8eJ	ka
4r	.
8r	.
8e	wa
=49	=49
8.dL	ka
[16BJk	ra
8BL]	.
8cJ	zu
8r	.
8cL	ha
8c	na
8dJ	tsu
=50	=50
8.eL	ko
[16eJk	to
8eL]	.
8eJ	wa
4r	.
8r	.
8e	na
=51	=51
8.dL	n
[16eJk	to
8eL]	.
[8cJ	shi
8cL]	.
8c	yo
8d	mo
8cJ	i
=52	=52
8.eL	ya
[16eJk	ri
8eL]	.
8eJ	no
4r	.
8r	.
8e	ke
=53	=53
8.dL	tsu
[16BJk	jo
8BL]	.
8cJ	to
8r	.
8cL	ka
8c	ta
8dJ	chi
=54	=54
8.eL	da
[16eJk	ke
16eLL]	.
16eJ	n
8eJ	no
4r	.
8r	.
8e	ko
=55	=55
8.dL	o
[16BJk	bi
8BL]	.
8cJ	wa
8r	.
8cL	ku
8c	sa
8dJ	re
=56	=56
8.eL	e
[16eJk	n
8eL]	.
8eJ	no
2r	.
=57	=57
8.dL	ki
[16BJk	mi
8BL]	.
8cJ	to
8r	.
8cL	a
8c	ta
8dJ	shi
=58	=58
8.eL	ni
[16eJk	yo
8eL]	.
8eJ	ku
4r	.
8r	.
8e	ni
=59	=59
8.dL	te
[16BJk	i
8BL]	.
[8cJ	ru
8cL]	.
8c	so
8d	re
8cJ	de
=60	=60
2c	mo
2d	i
=61	=61
2e	i
4g	ka
4a	ra
=62	=62
1r	.
=63	=63
1r	.
=64	=64
1r	.
=65	=65
1r	.
=66	=66
1r	.
=67	=67
1r	.
=68	=68
1r	.
=69	=69
1r	.
=70	=70
8r	.
8dL	a
8d	i
8fJ	shi
4g'	ta
8b-XL	te
[8aJ	yu
=71	=71
8aL]	.
8g	no
8g	de
8fJ	su
4f	ka
8dL	shi
8fJ	ga
=72	=72
4g	mi
8gL	tsu
8aJ	i
4b-X	te
4b-	mo
=73	=73
4cc	ga
4dd	ku
4cc	ko
8b-XL	to
8aJ	o
=74	=74
8r	.
8dL	ko
8d	ro
8fJ	shi
4g'	ta
8b-XL	te
[8aJ	i
=75	=75
8aL]	.
8g	ja
8g	na
8fJ	i
4f	ka
8dL	ki
8fJ	mi
=76	=76
4g	ga
8gL	ki
8aJ	ra
4b-X	u
4b-	a
=77	=77
4cc	ta
4dd	shi
4cc	na
8b-XL	n
8aJ	te
=78	=78
8r	.
8e-XL	a
8e-	i
8f#XJ	shi
4g#X'	ta
8bL	te
[8b-XJ	i
=79	=79
8b-L]	.
16.g#XL	ja
32g#JJk	n
8g#L	na
8f#XJ	i
4f#	ka
8e-XL	shi
8f#J	ba
=80	=80
4g#X	ri
8g#L	da
8b-XJ	re
4bn	mo
4b	fu
=81	=81
[8.cc#XL	re
32cc#LL]	.
32cc#JJJ	n
4ee-X	na
4cc#	i
8bL	yo
[8b-XJ	o
=82	=82
8b-L]	.
8e-X	ko
8e-	re
8f#XJ	mo
8g#XL	u
8g#	n
8bn	me
[8b-XJ	i
=83	=83
8b-L]	.
8g#X	ja
8g#	na
8f#XJ	i
4f#	ka
8e-XL	ki
8f#J	e
=84	=84
4g#X	ru
8g#L	ki
8b-XJ	e
4bn	ru
4b	to
=85	=85
4cc#X	a
4ee-X	ru
4cc#	a
8bL	i
8b-XJ	se
==	==
*-	*-
